X: 75
T: Bridge of Bamore
R: Reel
B: The Athole Collection
Z: 2020 John Chambers <jc:trillian.mit.edu>
M: C|
L: 1/8
K: A
E | A,2ef edcA | BF F/F/F GEEF  | A2ef  edcA | BABc A/A/A A :|
g | aece  aecA | BF F/F/F GEE g | aece  aecA | BABc A/A/A A ||
g | aece  aecA | BF F/F/F GEEF  | A,2ef edcA | BABc A/A/A A |]
